18x18/actions/object-tweak-rotate.svg

<svg xmlns="http://www.w3.org/2000/svg" width="18" height="18"><defs><style id="current-color-scheme" type="text/css">.ColorScheme-Text{color:#444}</style></defs><path style="fill:currentColor" class="ColorScheme-Text" d="M5 11h2v4H5z" transform="rotate(30 4.634 15.366)"/><path style="fill:currentColor" class="ColorScheme-Text" d="M9 11h2v4H9z" transform="rotate(30 8.634 15.366)"/><path style="fill:currentColor" class="ColorScheme-Text" d="M9 6h2v4H9z" transform="rotate(60 9.634 9.366)"/><path style="fill:currentColor" class="ColorScheme-Text" d="M5 6h2v4H5z" transform="rotate(60 5.634 9.366)"/><path style="fill:currentColor" class="ColorScheme-Text" d="M5 1h2v4H5z" transform="rotate(45 5.293 4.707)"/><path style="fill:currentColor" class="ColorScheme-Text" d="M9 1h2v4H9z" transform="rotate(45 9.293 4.707)"/><path style="fill:currentColor" class="ColorScheme-Text" d="M13 1h2v4h-2zM1 1h2v4H1zm0 5h2v4H1zm12 0h2v4h-2zm0 5h2v4h-2zM1 11h2v4H1z" transform="translate(1 1)"/></svg>

<svg xmlns="http://www.w3.org/2000/svg" width="18" height="18" version="1.1">
 <defs>
  <style id="current-color-scheme" type="text/css">
   .ColorScheme-Text { color:#444444; } .ColorScheme-Highlight { color:#4285f4; } .ColorScheme-NeutralText { color:#ff9800; } .ColorScheme-PositiveText { color:#4caf50; } .ColorScheme-NegativeText { color:#f44336; }
  </style>
 </defs>
 <g transform="translate(1,1)">
  <g transform="rotate(30,6,13)">
   <path style="fill:currentColor" class="ColorScheme-Text" d="M 5,11 H 7 V 15 H 5 Z"/>
  </g>
  <g transform="rotate(30,10,13)">
   <path style="fill:currentColor" class="ColorScheme-Text" d="M 9,11 H 11 V 15 H 9 Z"/>
  </g>
  <g transform="rotate(60,10,8)">
   <path style="fill:currentColor" class="ColorScheme-Text" d="M 9,6 H 11 V 10 H 9 Z"/>
  </g>
  <g transform="rotate(60,6,8)">
   <path style="fill:currentColor" class="ColorScheme-Text" d="M 5,6 H 7 V 10 H 5 Z"/>
  </g>
  <g transform="rotate(45,6,3)">
   <path style="fill:currentColor" class="ColorScheme-Text" d="M 5,1 H 7 V 5 H 5 Z"/>
  </g>
  <g transform="rotate(45,10,3)">
   <path style="fill:currentColor" class="ColorScheme-Text" d="M 9,1 H 11 V 5 H 9 Z"/>
  </g>
  <path style="fill:currentColor" class="ColorScheme-Text" d="M 13,1 H 15 V 5 H 13 Z M 1,1 H 3 V 5 H 1 Z M 1,6 H 3 V 10 H 1 Z M 13,6 H 15 V 10 H 13 Z M 13,11 H 15 V 15 H 13 Z M 1,11 H 3 V 15 H 1 Z"/>
 </g>
</svg>
